icon-themes/breeze_svg/cmd/ca/lc_underline.svg

<svg viewBox="0 0 24 24" xmlns="http://www.w3.org/2000/svg"><path d="m12.367188 4c-3.2113233-.0295029-6.6963774 2.1061258-4.9277349 7.082031 1.6188496 2.719088 5.2117509 2.091689 6.9999999 4.783203 1.868809 3.686137-4.382597 4.28189-6.439453-.867187h-1v3c.1910978 2.515798 11.999999 3.999994 10-4-.508475-1.006522-.988037-1.973119-2.355469-2.535156-11.9999934-2.9999973-1.643606-10.3808539.396485-2.3808598h.958984v-2.7480468c-.015035-1.499999-1.706021-2.3162826-3.632812-2.3339844zm-7.367188 19v1h14v-1z" fill="#4d4d4d"/></svg>

<svg xmlns="http://www.w3.org/2000/svg" viewBox="0 0 24 24">
  <path
     style="fill:#4d4d4d"
     d="M 12.367188 4 C 9.1558647 3.9704971 5.6708106 6.1061258 7.4394531 11.082031 C 9.0583027 13.801119 12.651204 13.17372 14.439453 15.865234 C 16.308262 19.551371 10.056856 20.147124 8 14.998047 L 7 14.998047 L 7 17.998047 C 7.1910978 20.513845 18.999999 21.998041 17 13.998047 C 16.491525 12.991525 16.011963 12.024928 14.644531 11.462891 C 2.6445376 8.4628937 13.000925 1.0820371 15.041016 9.0820312 L 16 9.0820312 L 16 6.3339844 C 15.984965 4.8339854 14.293979 4.0177018 12.367188 4 z M 5 23 L 5 24 L 19 24 L 19 23 L 5 23 z "
     />
</svg>
